src/actions/24/chronometer.svg

<svg xmlns="http://www.w3.org/2000/svg" viewBox="0 0 24 24">
  <defs id="defs3051">
    <style type="text/css" id="current-color-scheme">
      .ColorScheme-Text {
        color:#2e3440;
      }
      </style>
  </defs>
 <path style="fill:currentColor;fill-opacity:1;stroke:none" 
     d="M 12 4 C 10.892002 4 10 4.892002 10 6 C 10 6.097284 10.011721 6.1920363 10.025391 6.2851562 C 7.1157436 7.1341513 5 9.808893 5 13 C 5 16.878 8.122 20 12 20 C 15.878 20 19 16.878 19 13 C 19 11.413699 18.47267 9.9584804 17.589844 8.7871094 C 17.832877 8.6050134 18 8.328399 18 8 C 18 7.446 17.554 7 17 7 C 16.671601 7 16.394987 7.1671232 16.212891 7.4101562 C 15.548742 6.9096073 14.794688 6.5244442 13.974609 6.2851562 C 13.988279 6.1920363 14 6.097283 14 6 C 14 4.892002 13.107998 4 12 4 z M 12 5 C 12.554004 5 13 5.445996 13 6 C 13 6.027034 12.986465 6.0496909 12.984375 6.0761719 C 12.661843 6.0310029 12.335376 6 12 6 C 11.664624 6 11.338163 6.0310029 11.015625 6.0761719 C 11.01354 6.0496909 11 6.027034 11 6 C 11 5.445996 11.445996 5 12 5 z M 12 7 C 12.25958 7 12.513703 7.0193204 12.763672 7.0527344 C 12.798432 7.0571244 12.832622 7.0633854 12.867188 7.0683594 C 13.109281 7.1050284 13.347739 7.1538399 13.580078 7.2167969 C 16.131022 7.9080249 18 10.224417 18 13 C 18 16.324 15.324 19 12 19 C 8.676 19 6 16.324 6 13 C 6 10.224416 7.8689779 7.9080249 10.419922 7.2167969 C 10.652262 7.1538399 10.890719 7.1050294 11.132812 7.0683594 C 11.167383 7.0633894 11.201572 7.0571204 11.236328 7.0527344 C 11.486297 7.0193204 11.74042 7 12 7 z M 12 8 L 12 12 C 12.554 12 13 12.446 13 13 L 17 13 C 17 10.23 14.77 8 12 8 z "
     class="ColorScheme-Text"
     />
</svg>

<svg viewBox="0 0 24 24" xmlns="http://www.w3.org/2000/svg">
 <defs>
  <style type="text/css">.ColorScheme-Text {
        color:#2e3440;
      }</style>
 </defs>
 <path class="ColorScheme-Text" d="m12 4c-1.108 0-2 0.892-2 2 0 0.097284 0.011721 0.19204 0.025391 0.28516-2.9096 0.849-5.0254 3.5237-5.0254 6.7148 0 3.878 3.122 7 7 7s7-3.122 7-7c0-1.5863-0.52733-3.0415-1.4102-4.2129 0.24303-0.1821 0.41016-0.45871 0.41016-0.78711 0-0.554-0.446-1-1-1-0.3284 0-0.60501 0.16712-0.78711 0.41016-0.66415-0.50055-1.4182-0.88571-2.2383-1.125 0.01367-0.09312 0.025391-0.18787 0.025391-0.28516 0-1.108-0.892-2-2-2zm0 1c0.554 0 1 0.446 1 1 0 0.027034-0.013535 0.049691-0.015625 0.076172-0.32253-0.045169-0.649-0.076172-0.98438-0.076172s-0.66184 0.031003-0.98438 0.076172c-0.002085-0.026481-0.015625-0.049138-0.015625-0.076172 0-0.554 0.446-1 1-1zm0 2c0.25958 0 0.5137 0.01932 0.76367 0.052734 0.03476 0.00439 0.06895 0.010651 0.10352 0.015625 0.24209 0.036669 0.48055 0.08548 0.71289 0.14844 2.5509 0.69123 4.4199 3.0076 4.4199 5.7832 0 3.324-2.676 6-6 6s-6-2.676-6-6c0-2.7756 1.869-5.092 4.4199-5.7832 0.23234-0.062957 0.4708-0.11177 0.71289-0.14844 0.034571-0.00497 0.06876-0.011239 0.10352-0.015625 0.24997-0.033414 0.50409-0.052734 0.76367-0.052734zm0 1v4c0.554 0 1 0.446 1 1h4c0-2.77-2.23-5-5-5z" fill="currentColor"/>
</svg>
